images/icons/phone.svg

<svg width="23" height="24" viewBox="0 0 23 24" fill="none" xmlns="http://www.w3.org/2000/svg">
<path d="M16.7732 20.8933L19.0801 18.5847L16.1062 15.6071L14.6192 17.0959C14.4846 17.2318 14.3179 17.3316 14.1346 17.3862C13.9514 17.4407 13.7573 17.4482 13.5704 17.4079C13.4381 17.3803 10.3021 16.7044 8.39304 14.793C6.48403 12.8816 5.80897 9.7417 5.78137 9.60928C5.74202 9.4221 5.74991 9.22805 5.80433 9.0447C5.85874 8.86134 5.95797 8.69447 6.09302 8.55918L7.57999 7.07038L4.60606 4.09277L2.30029 6.40139C2.32329 7.80959 2.6982 12.7435 6.56913 16.6192C10.4274 20.4834 15.3379 20.8691 16.7732 20.8933Z" fill="white"/>
<path d="M21.465 19.3458L21.465 19.3458L18.3462 22.4685C17.9253 22.8899 17.3705 23.1213 16.7835 23.1213H16.7518C15.1203 23.0948 9.45754 22.6626 4.99605 18.1956C0.533888 13.7279 0.101577 8.05705 0.0752393 6.4244L0.000249028 6.42561L0.0752406 6.42449C0.0663487 5.83133 0.304327 5.24972 0.72722 4.8263L0.72723 4.82629L3.84412 1.70437C4.04997 1.51021 4.32209 1.40209 4.60488 1.40209C4.88768 1.40209 5.1598 1.51021 5.36565 1.70438L9.96491 6.30935L9.96495 6.30939C10.0649 6.40926 10.1441 6.52788 10.1982 6.65847C10.2523 6.78905 10.2802 6.92904 10.2802 7.07041C10.2802 7.21179 10.2523 7.35177 10.1982 7.48236C10.1441 7.61295 10.0649 7.73157 9.96495 7.83144L9.96491 7.83148L8.13179 9.66687L8.10025 9.69846L8.11297 9.74125C8.36638 10.5935 8.94558 12.1974 9.96491 13.218C10.9842 14.2386 12.5861 14.8185 13.4374 15.0722L13.4802 15.085L13.5119 15.0534L15.345 13.218L15.345 13.2179C15.4448 13.1179 15.5632 13.0385 15.6936 12.9844C15.824 12.9302 15.9638 12.9024 16.105 12.9024C16.2461 12.9024 16.3859 12.9302 16.5163 12.9844C16.6467 13.0385 16.7652 13.1179 16.8649 13.2179L16.865 13.218L21.465 17.8237L21.465 17.8238C21.565 17.9236 21.6442 18.0423 21.6983 18.1728C21.7524 18.3034 21.7802 18.4434 21.7802 18.5848C21.7802 18.7262 21.7524 18.8661 21.6983 18.9967C21.6442 19.1273 21.565 19.2459 21.465 19.3458ZM4.6591 4.0398L4.60603 3.98667L4.55297 4.0398L2.2472 6.34843L2.22476 6.3709L2.22528 6.40265C2.24839 7.81779 2.62451 12.7759 6.51602 16.6723C10.3949 20.5571 15.3296 20.9441 16.7719 20.9684L16.8037 20.9689L16.8262 20.9464L19.1331 18.6378L19.1861 18.5848L19.1331 18.5318L16.1592 15.5542L16.1061 15.501L16.053 15.5542L14.5661 17.043L14.566 17.0431C14.44 17.1699 14.2843 17.263 14.1131 17.3139C13.9419 17.3648 13.7607 17.372 13.586 17.3347L13.5857 17.3346C13.5221 17.3213 12.7095 17.1465 11.6756 16.7372C10.6407 16.3276 9.39021 15.6854 8.44608 14.7401C7.50194 13.7948 6.86054 12.5427 6.4514 11.5066C6.04264 10.4713 5.86803 9.65767 5.85476 9.59403L5.85471 9.59378C5.81763 9.41884 5.82486 9.23738 5.87574 9.06595C5.92662 8.89452 6.01952 8.73857 6.14599 8.61229L6.14606 8.61222L7.63302 7.12341L7.68595 7.07041L7.63302 7.01741L4.6591 4.0398ZM6.09299 8.55922C5.95768 8.69433 5.85827 8.8612 5.80384 9.04461C5.74941 9.22802 5.74167 9.42216 5.78134 9.60933C5.80894 9.74175 6.484 12.8817 8.39301 14.7931C10.302 16.7045 13.4381 17.3804 13.5703 17.408L6.09299 8.55922ZM12.7127 0.243942C18.5165 0.281291 22.8867 4.65235 22.924 10.4555H20.774C20.738 5.80749 17.3617 2.43278 12.7127 2.39686V0.243942Z" fill="#BDBDBD" stroke="white" stroke-width="0.15"/>
<path d="M12.7242 7.00282V4.84994C14.5286 4.86356 15.9191 5.36973 16.8619 6.3137C17.8047 7.25771 18.3103 8.64995 18.3239 10.4567H16.1738C16.1633 9.27599 15.9028 8.41291 15.3342 7.84358C14.7655 7.27424 13.9035 7.01335 12.7242 7.00282Z" fill="#BDBDBD" stroke="white" stroke-width="0.15"/>
</svg>

<svg width="23" height="24" fill="none" xmlns="http://www.w3.org/2000/svg"><path d="M16.773 20.893l2.307-2.308-2.974-2.978-1.487 1.489a1.14 1.14 0 01-1.049.312c-.132-.028-3.268-.704-5.177-2.615-1.909-1.911-2.584-5.051-2.612-5.184a1.152 1.152 0 01.312-1.05L7.58 7.07 4.606 4.093 2.3 6.4c.023 1.409.398 6.342 4.27 10.218 3.857 3.864 8.768 4.25 10.203 4.274z" fill="#fff"/><path d="M21.465 19.346h0l-3.119 3.122c-.42.422-.976.653-1.563.653h-.031c-1.632-.026-7.294-.458-11.756-4.925C.534 13.728.102 8.057.076 6.424L0 6.426l.075-.002a2.228 2.228 0 01.652-1.598h0l3.117-3.122a1.109 1.109 0 011.522 0L9.965 6.31h0a1.075 1.075 0 010 1.522h0L8.132 9.667l-.032.031.013.043c.253.853.833 2.456 1.852 3.477 1.02 1.02 2.621 1.6 3.472 1.854l.043.013.032-.032 1.833-1.835h0a1.074 1.074 0 011.52 0h0l4.6 4.606h0a1.074 1.074 0 010 1.522zM4.659 4.04l-.053-.053-.053.053-2.306 2.308-.022.023v.032c.023 1.415.4 6.373 4.291 10.27 3.879 3.884 8.814 4.271 10.256 4.295h.032l.022-.022 2.307-2.308.053-.053-.053-.053-2.974-2.978-.053-.053-.053.053-1.487 1.489h0a1.067 1.067 0 01-.98.292h0a12.825 12.825 0 01-1.91-.598c-1.035-.41-2.286-1.052-3.23-1.997-.944-.945-1.585-2.197-1.995-3.233a12.872 12.872 0 01-.596-1.913h0a1.073 1.073 0 01.291-.982h0l1.487-1.489.053-.053-.053-.053L4.659 4.04zm1.434 4.52a1.147 1.147 0 00-.312 1.05c.028.132.703 3.272 2.612 5.183 1.909 1.912 5.045 2.587 5.177 2.615L6.093 8.559zm6.62-8.316c5.804.037 10.174 4.408 10.211 10.212h-2.15c-.036-4.649-3.412-8.023-8.061-8.06V.245z" fill="#BDBDBD" stroke="#fff" stroke-width=".15"/><path d="M12.724 7.003V4.85c1.805.014 3.195.52 4.138 1.464.943.944 1.448 2.336 1.462 4.143h-2.15c-.01-1.181-.271-2.044-.84-2.613-.569-.57-1.43-.83-2.61-.841z" fill="#BDBDBD" stroke="#fff" stroke-width=".15"/></svg>
